X:133
T:Rondeau 3
A:Gascogne
O:France
M:2/4
L:1/8
Q:1/8=190
K:G
G/2A/2B/2A/2 GF/2G/2|Ad BG|G/2A/2B/2A/2 GF/2G/2|AD G2:|
|:GA/2B/2 cB/2c/2|dc/2B/2 A2|cB/2A/2 GF/2G/2|1Ad BG:|2AD G2||
